Sources/FrostedUI/Resources/Icons.xcassets/beaker32.imageset/beaker-32.svg

<svg width="32" height="32" viewBox="0 0 32 32" fill="none" xmlns="http://www.w3.org/2000/svg" data-fui-icon="true">
  <path
    d="M23.2498 2C23.6638 2.00015 23.9997 2.33591 23.9998 2.75C23.9998 3.16412 23.6638 3.49985 23.2498 3.5H20.9998V12.4619C20.9998 12.8688 21.1296 13.2654 21.3699 13.5938L29.4001 24.5654C31.052 26.8225 29.4402 29.9997 26.6433 30H5.3562C2.55949 29.9997 0.946918 26.8224 2.59839 24.5654L10.6296 13.5938C10.87 13.2653 10.9997 12.8689 10.9998 12.4619V3.5H8.74976C8.33575 3.49975 7.99976 3.16406 7.99976 2.75C7.9998 2.33598 8.33578 2.00025 8.74976 2H23.2498ZM11.6111 20.3271C10.2787 20.0883 8.76532 20.2292 6.87378 21.2627L3.80933 25.4512C2.88282 26.7172 3.7874 28.4997 5.3562 28.5H26.6433C28.2122 28.4997 29.1159 26.7173 28.1892 25.4512L25.4451 21.7021C23.5119 23.0284 21.8128 23.5015 20.2234 23.4316C18.5049 23.356 17.0158 22.6462 15.6619 21.9609C14.2665 21.2547 13.0178 20.5795 11.6111 20.3271ZM12.4998 12.4619C12.4997 13.1875 12.2681 13.894 11.8396 14.4795L8.54468 18.9805C9.74104 18.6734 10.8405 18.6648 11.8767 18.8506C13.5486 19.1506 15.0176 19.9544 16.3386 20.623C17.701 21.3126 18.9294 21.8737 20.2898 21.9336C21.4812 21.9859 22.855 21.6506 24.5583 20.4902L20.1589 14.4795C19.7306 13.8941 19.4998 13.1873 19.4998 12.4619V3.5H12.4998V12.4619Z"
    fill="currentColor"
  />
</svg>

<svg xmlns="http://www.w3.org/2000/svg" width="32" height="32" fill="none" data-fui-icon="true" viewBox="0 0 32 32"><path fill="currentColor" d="M23.25 2a.75.75 0 0 1 0 1.5H21v8.962c0 .407.13.803.37 1.132l8.03 10.971c1.652 2.258.04 5.435-2.757 5.435H5.356c-2.797 0-4.41-3.178-2.758-5.435l8.032-10.971c.24-.329.37-.725.37-1.132V3.5H8.75a.75.75 0 0 1 0-1.5zM11.61 20.327c-1.332-.239-2.846-.098-4.737.936L3.809 25.45c-.926 1.266-.022 3.049 1.547 3.049h21.287c1.57 0 2.473-1.783 1.546-3.049l-2.744-3.749c-1.933 1.326-3.632 1.8-5.222 1.73-1.718-.076-3.207-.786-4.561-1.471-1.396-.706-2.644-1.381-4.05-1.634m.889-7.865c0 .726-.232 1.432-.66 2.018l-3.295 4.5a7.7 7.7 0 0 1 3.332-.13c1.672.3 3.14 1.104 4.462 1.773 1.362.69 2.59 1.25 3.95 1.31 1.192.053 2.566-.282 4.27-1.443l-4.4-6.01a3.4 3.4 0 0 1-.66-2.018V3.5h-7z"/></svg>
